X:2
T:Andro 2
G:Kazimodal
R:Andro
C:Traditionnel, arrangement Ronan Keryell http://kazimodal.trad.org
Q:C2=112
M:4/4
S:Tonio\`u Breizh-Izel 1721 (Pleskob) 1999-10-19
K:G
|: "G"{GA}G/2D/2G/2B/2 "D"{AB}A>F "C"E"D"F "G"GG |\
D(G/2B/2) "Am"{AB}A>G "C"E"D"F "G"G2 :|
"G"{GA}GA/2B/2 "Am"A>A "Bm"{GA}GA/2B/2 "D"A2 |\
"G"{GA}GA/2B/2 "Em"GG "D"(F/2G/2)"C"E/2F/2 "Bm"D2 |
"G"{GA}GA/2B/2 "Am"A>A "C"{GA}GA/2B/2 "D"A2 |\
"G"{GA}GB/2A/2 "Am"(G/2F/2)"Bm"E/2F/2 "C"{GA}G(F/2"D"A/2) "G"G2 ||

